X: 21192
T: the Craigey Rock
%R: air, minuet, waltz
B: James Oswald "The Caledonian Pocket Companion" v.2 p.119 #2
Z: 2018 John Chambers <jc:trillian.mit.edu>
M: 3/4
L: 1/8
K: G
%%slurgraces yes
%%graceslurs yes
"_Slow"GGG |\
d2 =f2 e(d/c/) | c2 zBAB | (G2 A)BcB | (B2 A)GGG | d2 {de}=f2 e(d/c/) |
c3 A B^c | d2 (gf) e(d/^c/) | d3 d gB | (cB)(AG)(AB) | c3 B AB | (e2 d)g a(g/f/) | g3 :|
